X:0367
T:John Anderson my Jo.
T:For the Ger. Flute.
M:2/4
L:1/8
Q:1/4=90
I: || || ::
Z:Jack Campin * www.campin.me.uk * 2009
K:A Minor
G   |EAAB|c2cd   |BGG>A|G3 A/G/|EAAB|cBcd |edcd |e3||
f   |edcd|efge   |dcBc |d2cd   |ecdB|cABe |EAA^G|A3||
g   |eaab|c'2c'd'|bgga |g2ag   |eaab|c'2ba|bgee |e3
g/f/|ecgc|c'cgc  |GABc |d2cd   |ecdB|cABe |EAA^G|A3|]
<end>
<start>
